exported-svg/corner-down-right.svg

<svg height="24" viewBox="0 0 24 24" width="24" xmlns="http://www.w3.org/2000/svg"><path d="m19.2928932 16h-10.7928932c-2.48528137 0-4.5-2.0147186-4.5-4.5v-7c0-.27614237.22385763-.5.5-.5s.5.22385763.5.5v7c0 1.9329966 1.56700338 3.5 3.5 3.5h10.7928932l-4.1464466-4.1464466c-.1952621-.1952622-.1952621-.5118446 0-.7071068.1952622-.19526214.5118446-.19526214.7071068 0l5 5c.1952621.1952622.1952621.5118446 0 .7071068l-5 5c-.1952622.1952621-.5118446.1952621-.7071068 0-.1952621-.1952622-.1952621-.5118446 0-.7071068z"/></svg>

<?xml version="1.0" encoding="UTF-8"?>
<svg width="24px" height="24px" viewBox="0 0 24 24" version="1.1" xmlns="http://www.w3.org/2000/svg" xmlns:xlink="http://www.w3.org/1999/xlink">
    <!-- Generator: Sketch 55.2 (78181) - https://sketchapp.com -->
    <title>corner-down-right</title>
    <desc>Created with Sketch.</desc>
    <g id="corner-down-right" stroke="none" stroke-width="1" fill="none" fill-rule="evenodd">
        <path d="M19.2928932,16 L8.5,16 C6.01471863,16 4,13.9852814 4,11.5 L4,4.5 C4,4.22385763 4.22385763,4 4.5,4 C4.77614237,4 5,4.22385763 5,4.5 L5,11.5 C5,13.4329966 6.56700338,15 8.5,15 L19.2928932,15 L15.1464466,10.8535534 C14.9511845,10.6582912 14.9511845,10.3417088 15.1464466,10.1464466 C15.3417088,9.95118446 15.6582912,9.95118446 15.8535534,10.1464466 L20.8535534,15.1464466 C21.0488155,15.3417088 21.0488155,15.6582912 20.8535534,15.8535534 L15.8535534,20.8535534 C15.6582912,21.0488155 15.3417088,21.0488155 15.1464466,20.8535534 C14.9511845,20.6582912 14.9511845,20.3417088 15.1464466,20.1464466 L19.2928932,16 Z" id="Combined-Shape" fill="#000000" fill-rule="nonzero"></path>
    </g>
</svg>
